ui/StatusQ/src/assets/img/icons/check-circle.svg

<svg fill="none" height="16" viewBox="0 0 16 16" width="16" xmlns="http://www.w3.org/2000/svg"><g fill="#4360df"><path d="m11.0824 5.61085c.1531-.22977.0911-.5402-.1387-.69338-.2298-.15317-.5402-.09109-.6934.13868l-3.66167 5.49255-1.56873-1.56876c-.19527-.19526-.51185-.19526-.70711 0-.19526.19527-.19526.51185 0 .70711l2 1.99995c.10592.106.25375.1588.40282.1441.14907-.0148.28366-.0956.36676-.2203z"/><path clip-rule="evenodd" d="m7.99967 14.6668c-3.68189 0-6.66666-2.9847-6.66666-6.66664 0-3.6819 2.98477-6.66666 6.66666-6.66666 3.68193 0 6.66663 2.98476 6.66663 6.66666 0 3.68194-2.9847 6.66664-6.66663 6.66664zm0-1c-3.12961 0-5.66666-2.537-5.66666-5.66664 0-3.12961 2.53705-5.66666 5.66666-5.66666 3.12963 0 5.66663 2.53705 5.66663 5.66666 0 3.12964-2.537 5.66664-5.66663 5.66664z" fill-rule="evenodd"/></g></svg>

<svg width="16" height="16" viewBox="0 0 16 16" fill="none" xmlns="http://www.w3.org/2000/svg">
<path d="M11.0824 5.61085C11.2355 5.38108 11.1735 5.07065 10.9437 4.91747C10.7139 4.7643 10.4035 4.82638 10.2503 5.05615L6.58863 10.5487L5.0199 8.97994C4.82463 8.78468 4.50805 8.78468 4.31279 8.97994C4.11753 9.17521 4.11753 9.49179 4.31279 9.68705L6.31279 11.687C6.41871 11.793 6.56654 11.8458 6.71561 11.8311C6.86468 11.8163 6.99927 11.7355 7.08237 11.6108L11.0824 5.61085Z" fill="#4360DF"/>
<path fill-rule="evenodd" clip-rule="evenodd" d="M7.99967 14.6668C4.31778 14.6668 1.33301 11.6821 1.33301 8.00016C1.33301 4.31826 4.31778 1.3335 7.99967 1.3335C11.6816 1.3335 14.6663 4.31826 14.6663 8.00016C14.6663 11.6821 11.6816 14.6668 7.99967 14.6668ZM7.99967 13.6668C4.87006 13.6668 2.33301 11.1298 2.33301 8.00016C2.33301 4.87055 4.87006 2.3335 7.99967 2.3335C11.1293 2.3335 13.6663 4.87055 13.6663 8.00016C13.6663 11.1298 11.1293 13.6668 7.99967 13.6668Z" fill="#4360DF"/>
</svg>
